polaris-icons/icons/new-icons/CreditCardCancelMajor.svg

<svg width="20" height="20" viewBox="0 0 20 20" fill="none" xmlns="http://www.w3.org/2000/svg">
<path fill-rule="evenodd" clip-rule="evenodd" d="M2.75 7.25C2.75 5.73122 3.98122 4.5 5.5 4.5H15C16.5188 4.5 17.75 5.73122 17.75 7.25V9.75C17.75 10.1642 17.4142 10.5 17 10.5C16.5858 10.5 16.25 10.1642 16.25 9.75V9.25H4.25V12.75C4.25 13.4404 4.80964 14 5.5 14H10.52C10.9342 14 11.27 14.3358 11.27 14.75C11.27 15.1642 10.9342 15.5 10.52 15.5H5.5C3.98122 15.5 2.75 14.2688 2.75 12.75V7.25ZM15 6C15.6904 6 16.25 6.55964 16.25 7.25L4.25 7.25C4.25 6.55964 4.80964 6 5.5 6H15Z" fill="#4A4A4A"/>
<path d="M6.25 11.25C5.83579 11.25 5.5 11.5858 5.5 12C5.5 12.4142 5.83579 12.75 6.25 12.75H9C9.41421 12.75 9.75 12.4142 9.75 12C9.75 11.5858 9.41421 11.25 9 11.25H6.25Z" fill="#4A4A4A"/>
<path d="M16.7803 11.7197C17.0732 12.0126 17.0732 12.4874 16.7803 12.7803L15.8107 13.75L16.7803 14.7197C17.0732 15.0126 17.0732 15.4874 16.7803 15.7803C16.4874 16.0732 16.0126 16.0732 15.7197 15.7803L14.75 14.8107L13.7803 15.7803C13.4874 16.0732 13.0126 16.0732 12.7197 15.7803C12.4268 15.4874 12.4268 15.0126 12.7197 14.7197L13.6893 13.75L12.7197 12.7803C12.4268 12.4874 12.4268 12.0126 12.7197 11.7197C13.0126 11.4268 13.4874 11.4268 13.7803 11.7197L14.75 12.6893L15.7197 11.7197C16.0126 11.4268 16.4874 11.4268 16.7803 11.7197Z" fill="#4A4A4A"/>
</svg>

<svg viewBox="0 0 20 20" xmlns="http://www.w3.org/2000/svg"><path fill-rule="evenodd" d="M2.75 7.25a2.75 2.75 0 0 1 2.75-2.75h9.5a2.75 2.75 0 0 1 2.75 2.75v2.5a.75.75 0 0 1-1.5 0v-.5h-12v3.5c0 .69.56 1.25 1.25 1.25h5.02a.75.75 0 0 1 0 1.5h-5.02a2.75 2.75 0 0 1-2.75-2.75v-5.5Zm12.25-1.25c.69 0 1.25.56 1.25 1.25h-12c0-.69.56-1.25 1.25-1.25h9.5Z" fill="#5C5F62"/><path d="M6.25 11.25a.75.75 0 0 0 0 1.5h2.75a.75.75 0 0 0 0-1.5h-2.75Z" fill="#5C5F62"/><path d="M16.78 11.72a.75.75 0 0 1 0 1.06l-.97.97.97.97a.75.75 0 1 1-1.06 1.06l-.97-.97-.97.97a.75.75 0 1 1-1.06-1.06l.97-.97-.97-.97a.75.75 0 1 1 1.06-1.06l.97.97.97-.97a.75.75 0 0 1 1.06 0Z" fill="#5C5F62"/></svg>
